X:1
T:Sonate 5 pour Flûte en Sol mineur
T:Sonate 5 pour Flûte en Sol mineur
T:Anna Bon Di Venezia
C:Anna Bon Di Venezia
%%score 1 2
L:1/8
M:3/4
K:Bb
V:1 treble nm="Flûte" snm="Fl."
V:2 bass nm="Violoncelle" snm="Vlc"
V:1
"^Allegro" g2 d2 B2 |{B} (3(AG^F){F} G4 | (3(ABc) (3(Bcd) (3(^FGA) |{A} (3(G^FG) D2 z2 | g2 d2 B2 | %5
{B} (3(AG^F){F} G4 | (3(ABc) c2 B2 |{B} TA4 z2 | B2 (3(Fdc) (3(dcB) | c2 (3(Fdc) (3(dcB) | %10
 (3(dBd) (3(fdf) g>B | (3(AGF) F2 z f |{g} f>=e (3(c'ba) (3(gf_e) |{f} e>d (3(bfe) (3(dcB) | %14
 (3(Gec) B2 A2 |{A} B4 z f |{g} Tf>=e (3(c'ba) (3(gf_e) |{f} Te>d (3(bfe) (3(dcB) | %18
 (3(Geg) (3(fdB) (3(ecA) |1 B4 z2 :|2 B4 z2 |: b2 f2 d2 |{d} (3(cBA){A} B4 | %23
 (3(cde) (3(def) (3(ABc) |{c} (3(BAB) F2 z2 | g2 d2 B2 |{B} (3(AG^F){F} G4 | %27
 (3(ABc) (3(Bcd) (3(^FGA) |{A} (3(G^FG) D2 z2 | (3(Bdc) (3(dcB) (3(ABG) | =B2 (3(z _ag) (3(fed) | %31
 (3(egf) (3(gfe) (3(dec) |{B} A2 (3(z gf) (3(edc) | (3(dfe) (3(fed) (3(cdB) | %34
{A} G2 (3(z fe) (3(dcB) | (3(ced) (3(edc) (3(BcA) |{G} ^F2 (3(z ed) (3(cBA) | (3(BAG) (3(cBA) d>G | %38
 (3(^F=ED) D2 z2 | G3 DGB | AD dcBA | B3 DGB | AD dcBA | B2 gfed | edcBAG | ^F>=E D4 | _e6 | %47
 d2 ^f2 g2 | ag^fedc | (3(BAG) TA4 |1 G6 :|2 G4 z2 |] %52
[M:3/8]"^Andante staccato"[Q:1/8=120] z3/4 G/<B/d/4g | z3/4 D/<^F/A/4d | z3/4 G/<B/d/<g/B/4 | %55
 A/>^F/D z | z3/4 B/<d/=f/4b | z3/4 F/<A/c/4f | z3/4 B/<d/f/<b/d/4 | c/>A/F z/ f/ | %60
 g/>b/a/>g/f/>=e/ | f/>g/f/>_e/d/>c/ | (d/>e/)(f/>g/)TA |{A} B2 c3/4(d/8e/8) | ed A3/4(B/8c/8) | %65
 cB c3/4(d/8e/8) | d/>g/f/>e/d/>c/ | B2 z :| z3/4 G/<B/d/4g | z3/4 D/<^F/A/4d | %70
 z3/4 G/<B/d/<g/_a/4 | g/>c/d/>_a/g/>=f/ |{f} e/>d/c z/ e/ | e/d<gd/ | d/c<_ac/ | =Bfe | d_ag | %77
 z/ f/{g}f/e/{f}e/d/ | cg/>f/e/>d/ | ce/>d/c/>B/ | =A/>B/c/>B/A/>G/ | dD z | z3/4 G/<B/d/4g | %83
 z3/4 D/<^F/A/4d | z3/4 G/<B/d/<g/B/4 | Aed | z/ c/{d}c/B/{c}B/A/ |{A} G2 A3/4(B/8c/8) | %88
 cB ^F3/4(G/8A/8) | AG A3/4(B/8c/8) | B/>e/d/>c/B/>A/ | G2 z :: %92
[M:2/4][Q:1/4=100]"^Allegro" d/4c/4B/4A/4 | GG G/B/A/G/ | dD D/^F/=E/D/ | GG G/B/d/g/ | %96
 g/^f/a/g/ f/_e/d/c/ | B/d/c/e/ d/c/B/A/ | B/A/G z2 | TB>d e/c/B/A/ | (TBB/4)c/4d/4e/4 =ff | %101
 g/e/d/e/ B/e/G/B/ | E/G/B/e/ Pe>g | f/d/c/d/ B/d/F/B/ | D/F/B/d/ Pd>f | e(3(g/f/e/) d(3(f/e/d/) | %106
{d} c/=B/c/d/ e/f/g/_B/ |{B} A2 z c/e/ | d/b/a/g/ f/a/c'/e/ |{e} d2 z c/e/ | d/b/a/g/ f/a/c'/e/ | %111
 Td3/2c/4d/4 e/G/c/B/ |{B} TA3/2G/4F/4 Be | (3(d/c/B/)(3(e/d/c/) Tc2 | B2 f/d/B/F/ | %115
 G/.e/.e/G/ A/.f/.f/A/ | B/d/f/.b/ .b/d'/c'/b/- | b/g/f/e/ d/c/B/A/ | B2 z :: f/4e/4d/4c/4 | %120
 BB B/d/c/B/ | fF F/A/G/F/ | BB B/d/f/b/ | b/a/c'/b/ a/g/f/e/ | d/f/e/g/ f/e/d/c/ | d/c/B z f/d/ | %126
 =B/d/F/_A/ D/f/e/d/ | e/>f/g/>_a/ g/>f/e/>d/ | e/c/g/c/ c/=B/d/f/ | e/c/g/_B/ B/A/c/e/ | %130
 d/B/f/A/ A/G/B/d/ | c/A/e/A/ G/^F/A/c/ | B/G/c/A/ d/B/A/G/ | (3(^F/=E/D/)D z d/4c/4B/4A/4 | %134
 GG G/B/A/G/ | dD D/^F/=E/D/ | GG G/B/d/g/ | g/^f/a/g/ f/_e/d/c/ | B/d/c/e/ d/c/B/A/ | %139
 (3(B/G/A/) (3(B/A/G/) e2 | (3(z/ F/G/) (3(A/G/F/) d2 | (3(z/ E/F/) (3(G/F/E/) c2 | %142
 (3(z/ D/=E/) (3(^F/E/D/) (3(G/D/G/) (3(B/A/G/) | (3(A/D/A/) (3(c/B/A/) (3(B/G/A/) (3(d/c/B/) | %144
 (3(c/A/c/) (3(e/d/c/) (3(d/c/B/) (3(A/B/G/) |{G} T^F3/2=E/4D/4 Gc | (3(B/A/G/) (3(c/B/A/) TA2 | %147
 G2 d/B/G/D/ | E/.c/.c/E/ ^F/.d/.d/F/ | G/B/d/.g/ .g/b/a/g/- | g/e/d/c/ B/A/G/^F/ | G2 z :| %152
V:2
 G,,4 G,2 | C2 B,2 G,2 | C,2 D,2 D,,2 | G,,2 B,,2 G,,2 | G,,4 G,2 | C2 B,2 G,2 | ^F,4 G,2 | %7
 D,2 D,>E,C,>D, | B,,2 B,,2 B,2 | A,2 A,2 F,2 | B,,2 D,2 =E,2 | F,2 A,2 F,2 | G,2 A,4 | B,4 B,,2 | %14
 E,2 F,2 F,,2 | G,,6 | G,2 A,4 | B,4 B,,2 | E,2 G,2 F,,2 |1 B,,2 D,C, B,,A,, :|2 B,,2 F,E, D,C, |: %21
 B,,4 B,2 | E,2 D,2 B,,2 | E,2 F,2 F,,2 | B,,2 D,C,B,,A,, | G,,4 G,2 | C2 B,2 G,2 | C,2 D,2 D,,2 | %28
 G,,2 B,,2 A,,2 | G,,6 | G,2 =B,2 G,2 | C2 E,2 C,2 | F,2 A,2 F,2 | B,2 D,2 B,,2 | E,2 G,2 E,2 | %35
 A,2 C,2 A,,2 | D,2 ^F,2 D,2 | G,2 A,2 B,>^C, | D,2 D2 C2 | B,2 G,2 B,2 | ^F,2 D,2 F,2 | %41
 G,2 G,,2 B,2 | ^F,2 D,2 F,2 | G,6 | C,4 ^C,2 | D,2 A,,^F,, D,,2 | z2 C,2 C2 | B,2 A,2 B,2 | ^F,6 | %49
 G,2 D,2 D,,2 |1 G,,G,F,E,D,C, :|2 G,,4 z2 |][M:3/8] G,3 | ^F,3 | G,G,^C, | D,>E,=C,/D,/ | B,,3 | %57
 A,,3 | B,,2 =E, | F,2 F,, | B,,2 C, | D,2 A,, | B,,D,F, | z G,,A,, | B,,2 E, | D,2 A,, | %66
 B,,/>E,/F,F,, | B,,2 z :| G,3 | ^F,3 | G,2 =F, | E,F,G, | C,E,C, | G,2 G,, | _A,,2 F,, | G,,D,C, | %76
 =B,,2 C, | F,G,G,, | C,2 z | C,2 z | C,2 ^C, | D,>=C,B,,/A,,/ | G,,3 | ^F,,3 | G,,G,^C, | %85
 D,=C,B,, | A,,D,D,, | z E,^F,, | G,,2 C, | B,,2 ^F,, | G,,/>C,/ D,D,, | G,,2 z ::[M:2/4] z | z4 | %94
 ^F,A,/4G,/4F,/4=E,/4 D,C, | B,,A,,G,,B,, | D,D, D,^F, | G,A, ^F,D, | G,>G, =F,/E,/D,/C,/ | %99
 B,,B, E,F, | z B,,D,B,, | E,2 z2 | z E,G,E, | B,,2 z2 | z B,,B,,B,, | F,,2 B,,2 | E,E,E,=E, | %107
 F,F,/G,/ A,F, | B,2 z F, | B,B,/A,/ B,F, | B,2 z F, | B,B, E,E, | F,E, D,E, | F,E, F,F,, | %114
 B,,B, z D, | E,2 F,2 | G,G,D,D, | E,E,F,F,, | B,,2 z :: z | z F/4E/4D/4C/4 B,B, | %121
 A,C/4B,/4A,/4G,/4 F,F, | D,C, B,,D, | F,F, F,A, | B,C A,F, | B,B,,/C,/ D,B,, | G,,2 =B,,2 | %127
 C,E,/F,/ G,G,, | C,E, G,G,, | C,E, F,F,, | B,,D, E,E,, | A,,C, D,D,, | G,,A,, B,,C,/^C,/ | %133
 D,A,,/^F,,/ D,, z | z D/4C/4B,/4A,/4 G,G, | ^F,A,/4G,/4F,/4=E,/4 D,D, | B,,A,, G,,B,, | %137
 D,D, D,^F, | G,A, ^F,D, | G,2 (3(z/ C,/D,/) (3(E,/D,/C,/) | F,2 (3(z/ B,,/C,/) (3(D,/C,/B,,/) | %141
 E,2 (3(z/ A,,/B,,/) (3(C,/B,,/A,,/) | D,C, B,,G,, | ^F,,D,, G,,B,, | A,,^F,, B,,C, | D,C, B,,C, | %146
 D,C, D,D,, | G,,G, z B,, | C,2 D,2 | E,E, B,,B,, | C,C, D,D,, | G,,2 z :| %152

